files/resources/svgs/general/s-battery-100.svg

<svg width="24" height="24" viewBox="0 0 24 24" fill="none" xmlns="http://www.w3.org/2000/svg">
<path fill-rule="evenodd" clip-rule="evenodd" d="M3.75 6.75C2.09315 6.75 0.75 8.09315 0.75 9.75V15.75C0.75 17.4069 2.09315 18.75 3.75 18.75H18.75C20.4069 18.75 21.75 17.4069 21.75 15.75V15.7125C22.6058 15.5388 23.25 14.7821 23.25 13.875V11.625C23.25 10.7179 22.6058 9.96123 21.75 9.78751V9.75C21.75 8.09315 20.4069 6.75 18.75 6.75H3.75ZM18.75 8.25C19.5784 8.25 20.25 8.92157 20.25 9.75V15.75C20.25 16.5784 19.5784 17.25 18.75 17.25H3.75C2.92157 17.25 2.25 16.5784 2.25 15.75V9.75C2.25 8.92157 2.92157 8.25 3.75 8.25H18.75ZM4.5 9.75C4.08579 9.75 3.75 10.0858 3.75 10.5V15C3.75 15.4142 4.08579 15.75 4.5 15.75H18C18.4142 15.75 18.75 15.4142 18.75 15V10.5C18.75 10.0858 18.4142 9.75 18 9.75H4.5Z" fill="#0F172A"/>
</svg>

<svg xmlns="http://www.w3.org/2000/svg" viewBox="0 0 24 24" fill="currentColor" aria-hidden="true">
  <path fill-rule="evenodd" d="M3.75 6.75a3 3 0 00-3 3v6a3 3 0 003 3h15a3 3 0 003-3v-.037c.856-.174 1.5-.93 1.5-1.838v-2.25c0-.907-.644-1.664-1.5-1.837V9.75a3 3 0 00-3-3h-15zm15 1.5a1.5 1.5 0 011.5 1.5v6a1.5 1.5 0 01-1.5 1.5h-15a1.5 1.5 0 01-1.5-1.5v-6a1.5 1.5 0 011.5-1.5h15zM4.5 9.75a.75.75 0 00-.75.75V15c0 .414.336.75.75.75H18a.75.75 0 00.75-.75v-4.5a.75.75 0 00-.75-.75H4.5z" clip-rule="evenodd"/>
</svg>
